X:1
T:Iste Confessor
T:Giovanni Matteo Asola (c.1532 - 1609)
T:Edited by Lewis Jones, 2012
T:Iste Confessor
C:Giovanni Matteo Asola
C:(c.1532 - 1609)
Z:Edited by Lewis Jones, 2012
%%score [ 1 2 3 4 ]
L:1/8
M:4/4
K:C
V:1 alto1 nm="Canto"
V:2 alto transpose=-12 nm="Alto"
V:3 tenor transpose=-12 nm="Tenore"
V:4 bass nm="Basso"
V:1
 x8 |[M:4/2][K:treble] G8 ^F8 | G8 G4 F4 | D8 E8 | F4 G4 F4 G4 | G8 E8 | G8 F4 G4 | G8 F8 | %8
w: |1.Is- *|te Con- *|fes- sor|Do- mi- ni sa-|cra- tus|Fes- ta plebs|cu- uis|
w: |3.Ad _|sa- crum _|cu- ius|tu- mu- lum fre-|quen- ter|mem- bra lan-|guen- tum|
w: |5.Sit _|sa- lus _|il- li,|de- cus at- que|vir- tus,|qui su- pra|coe- li|
 F4 E4 E4 D4 | D8 E8 | E8 C4 D4- | D4 C8 B,4 | C8 E4 E4 | F4 F4 F8 | E8 F4 G4 | A8 ^F8 | %16
w: ce- le- brat per|or- bem,|Ho- di- e|_ lae- *|tus me- ru-|it se- cre-|ta scan- *||
w: mo- do sa- ni-|ta- ti,|quo- li- bet|_ mor- *|bo fu- e-|rint gra- va-|ta, re- *||
w: re- si- dens ca-|cu- men,|to- ti- us|_ mun- *|di se- ri-|em gu- ber-|nat tri- *||
 G4 G4 ^F8 | G2 x30 || z26 | z24 | z26 | z20 || z10 || %23
w: de- re coe-|li.||||||
w: sti- tu- un-|tur.||||||
w: nus et u-|nus.||||||
V:2
 x8 |[M:4/2][K:treble-8] d16 | B8 c4 A4 | B8 c8 | c4 c4 d4 d4 | e8 c8 | e8 d4 e4 | d8 d8 | %8
w: |1.Is-|te Con- *|fes- sor|Do- mi- ni sa-|cra- tus|Fes- ta plebs|cu- ius|
w: |3.Ad|sa- crum _|cu- ius|tu- mu- lum fre-|quen- ter|mem- bra lan-|guen- tum|
w: |5.Sit|sa- lus _|il- li,|de- cus at- que|vir- tus,|qui su- pra|coe- li|
 c4 c4 c4 A4 | B8 c8 | c8 G4 _B4 |"^b" _B2 A2 G2 F2 G8 | G8 c4 c4 | c4 d4 c8 | c8 c4 e4 | e8 d8 | %16
w: ce- le- brat per|or- bem,|Ho- di- e|lae- * * * *|tus me- ru-|it se- cre-|ta scan- *||
w: mo- do sa- ni-|ta- ti,|quo- li- bet|mor- * * * *|bo fu- e-|rint gra- va-|ta, re- *||
w: re- si- dens ca-|cu- men,|to- ti- us|mun- * * * *|di se- ri-|em gu- ber-|nat tri- *||
 d4 d4 d8 | d2 x30 || z26 | z24 | z26 | z20 || z10 || %23
w: de- re coe-|li.||||||
w: sti- tu- un-|tur.||||||
w: nus et u-|nus.||||||
V:3
 x8 |[M:4/2][K:treble-8] G8 A8 | G8 E4 F4 | G8 G8 | A4 G4 A4 B4 | c8 G8 | c8 A4 c4 | B8 A8 | %8
w: ||||||||
w: |1.Is- *|te Con- *|fes- sor|Do- mi- ni sa-|cra- tus|Fes- ta plebs|cu- ius|
w: |3.Ad _|sa- crum _|cu- ius|tu- mu- lum fre-|quen- ter|mem- bra lan-|guen- tum|
w: |5.Sit _|sa- lus _|il- li,|de- cus at- que|vir- tus,|qui su- pra|coe- li|
 A4 G4 E4 F4 | G8 G8 | G8 E4 G4 | F4 E4 D8 | C8 G4 G4 | A4 F4 A8 | G8 A4 B4 | c8 A8 | _B4 B4 A8 | %17
w: |||||||||
w: ce- le- brat per|or- bem,|Ho- di- e|lae- * *|tus me- ru-|it se- cre-|ta scan- *||de- re coe-|
w: mo- do sa- ni-|ta- ti,|quo- li- bet|mor- * *|bo fu- e-|rint gra- va-|ta, re- *||sti- tu- un-|
w: re- se- dens ca-|cu- men,|to- ti- us|mun- * *|di se- ri-|em gu- ber-|nat tri- *||nus et u-|
 G2 x30 || G2 A2 G2 E2 F2 G2 G2 A2 G2 A2 B2 c2 G2 | c2 A2 c2 B2 A2 A2 A2 G2 E2 F2 G2 G2 | %20
w: |||
w: li.|2.Qui _ _ pi- us, pru- dens, hu- mi- lis, pu- di- cus,|so- bri- us, ca- * stus fu- it et qui- e- tus,|
w: tur.|4.Un- * * de nunc no- ster cho- rus in ho- no- rem|ip- si- us hym- * num ca- nit hunc li- ben- ter|
w: nus.|||
 G2 E2 G2 F2 E2 D2 C2 G2 G2 A2 B2 A2 G2 | A2 B2 c2 B2 A2 G2 A2 B2 A2 G2 || G2 A2 G2 F2 G2 || %23
w: ||A- * * men. _|
w: vi- ta dum pre- * * sens, ve- ge- ta- vit e- ius|cor- * * * * * po- ris ar- tus.||
w: ut pi- is e- * * ius me- ri- tis iu- ve- mur|om- * * * * * ne per ae- vum.||
w: |||
V:4
 x8 |[M:4/2] G,8 D,8 | G,,8 C,4 D,4 | G,,8 C,8 | F,4 E,4 D,4 G,4 | C,8 C,8 | C,8 D,4 C,4 | %7
w: |1.Is- *|te Con- *|fes- sor|Do- mi- ni sa-|cra- tus|Fes- ta plebs|
w: |3.Ad _|sa- crum _|cu- uis|tu- mu- lum fre-|quen- ter|mem- bra lan-|
w: |5.Sit _|sa- lus _|il- li,|de- cus at- que|vir- tus,|qui su- pra|
 G,8 D,8 | F,4 C,4 C,4 D,4 | G,,8 C,8 | C,8 C,4 G,,4 | _B,,4 C,4 G,,8 | C,8 C,4 C,4 | F,4 D,4 F,8 | %14
w: cu- ius|ce- le- brat per|or- bem,|Ho- di- e|lae- * *|tus me- ru-|it se- cre-|
w: guen- tum|mo- do sa- ni-|ta- ti,|quo- li- bet|mor- * *|bo fu- e-|rint gra- va-|
w: coe- li|re- si- dens ca-|cu- cem,|to- ti- us|mun- * *|di se- ri-|em gu- ber-|
 C,8 F,4 E,4 | A,8 D,8 | G,4 G,4 D,8 | G,,2 x30 || z26 | z24 | z26 | z20 || z10 || %23
w: ta scan- *||de- re coe-|li.||||||
w: ta, re- *||sti- tu- un-|tur.||||||
w: nat tri- *||nus et u-|nus.||||||

